raw/symbols/msft.svg

<svg width="36" height="36" viewBox="0 0 36 36" fill="none" xmlns="http://www.w3.org/2000/svg">
<rect width="36" height="36" rx="18" fill="#8600EF"/>
<path d="M17.551 8.99951H9.00098V17.5495H17.551V8.99951Z" fill="#030303"/>
<path d="M26.9992 8.99951H18.4492V17.5495H26.9992V8.99951Z" fill="#030303"/>
<path d="M17.551 18.4507H9.00098V27.0007H17.551V18.4507Z" fill="#030303"/>
<path d="M26.9992 18.4507H18.4492V27.0007H26.9992V18.4507Z" fill="#030303"/>
</svg>

<svg xmlns="http://www.w3.org/2000/svg" width="36" height="36" fill="none"><rect width="36" height="36" fill="#8600EF" rx="18"/><path fill="#030303" d="M17.551 9h-8.55v8.55h8.55V9ZM27 9h-8.55v8.55H27V9ZM17.551 18.45h-8.55V27h8.55v-8.55ZM27 18.45h-8.55V27H27v-8.55Z"/></svg>
